X: 109
T:Jota Antiga
M:3/4
L:1/8
Q:250
C:Trad.
S:Rep: Fruito Novo (Melide)
R:Jota
K:C
FGAF |GAGEC2- | C2 FGAF | G2 EG c2- | c2 BcBA| GAGF G2- | 
G2 GFED |1 EFED C2- | C2 :|2 C2E2G2 |C6 |: D"F."c D_E F2- | F2 _E2{C}E2
| D2 _ED C2- |
C6 | _E"F."cEF G2- | G2 F2{C}F2 | _E2 FE D2- | D4- D"F."c :| D"F."cD_E F
2- | F2 _E2 {C}E2 | D2_ED C2- 
|: C"F."G C2{D}C2 | D2 B,2 C2 | D2 _E2 B,2 | D2 _ED C2- :| C2 G2{C}G2 |
{C}G2 D2 _E2 | F2G2F2 | _EFED C2- |C2 FGF_E |
D2B,2C2 | D2 _E2B,2 | D2 _EDC2- | C2 ||

